X:172
T: Es, es, es und es (3-47), S. 28f
N: K1147
O: Luxemburg
S: KINTZELE, Guillaume: An der Ucht, Bd. 3 Luxemburg 1928]
N: in der Quelle mit einer 2. Stimme versehen
R: Abschiedslied]
M: 4/4
L: 1/8
K: G
 | B4A4 | G2FED2
D2 | G2G2A2d2 | B4z4 |
B4A4 | G2FED2
D2 | G2G2A2d2 | B4z2
GA | B2B2B2cB | A2A2A2
BA | G2G2G2AG | F2F2F2
D2 | G2G2A2A2 | B3cd2
B2 | A4F4 | G4z4

@@@ Tune index: 8226
